X: 013
T: Honble Miss H Elliot's Reel
C: by John Pringle
B: John Pringle "Collection of Reels Strathspeys & Jigs", 1801 p.1#3
Z: 2011 John Chambers <jc:trillian.mit.edu>
R: reel
M: C|
L: 1/8
K: F
V: 1
B !Segno!|:\
ABcA Bddf | efge faac' | ABcA Bcdf | ecde f/f/f f2 :|
fcAF dBGE | cBAf egce | fcAF dBbg | afeg f/f/ffa |
(ba).g.e egce | (ag).f.e dfBd | gfed cfAc | BdGc AFFB !Segno!y|]
V: 2 clef=bass middle=d

%%sep 2 1 500

